static/img/kroki/861db4befa0d9b8f39e592427e92e13c.svg

<?xml version="1.0" encoding="us-ascii" standalone="no"?><svg xmlns="http://www.w3.org/2000/svg" xmlns:xlink="http://www.w3.org/1999/xlink" contentStyleType="text/css" height="352px" preserveAspectRatio="none" style="width:347px;height:352px;" version="1.1" viewBox="0 0 347 352" width="347px" zoomAndPan="magnify"><defs/><g><!--class aws_dynamodb_table--><g id="elem_aws_dynamodb_table"><rect codeLine="22" fill="#3D176E" height="39.7891" id="aws_dynamodb_table" rx="2.5" ry="2.5" style="stroke:#000D19;stroke-width:0.5;" width="223" x="79" y="106.79"/><ellipse cx="94" cy="126.6845" fill="#ADD1B2" rx="11" ry="11" style="stroke:#181818;stroke-width:1.0;"/><path d="M96.9688,132.3252 Q96.3906,132.622 95.75,132.7627 Q95.1094,132.9189 94.4063,132.9189 Q91.9063,132.9189 90.5781,131.2783 Q89.2656,129.622 89.2656,126.497 Q89.2656,123.372 90.5781,121.7158 Q91.9063,120.0595 94.4063,120.0595 Q95.1094,120.0595 95.75,120.2158 Q96.4063,120.372 96.9688,120.6689 L96.9688,123.3877 Q96.3438,122.8095 95.75,122.5439 Q95.1563,122.2627 94.5313,122.2627 Q93.1875,122.2627 92.5,123.3408 Q91.8125,124.4033 91.8125,126.497 Q91.8125,128.5908 92.5,129.6689 Q93.1875,130.7314 94.5313,130.7314 Q95.1563,130.7314 95.75,130.4658 Q96.3438,130.1845 96.9688,129.6064 L96.9688,132.3252 Z " fill="#000000"/><text fill="#D9B8FF" font-family="Helvetica" font-size="17" lengthAdjust="spacing" textLength="181" x="113" y="132.5698">aws_dynamodb_table</text></g><!--class aws_kinesis_stream--><g id="elem_aws_kinesis_stream"><rect codeLine="24" fill="#3D176E" height="39.7891" id="aws_kinesis_stream" rx="2.5" ry="2.5" style="stroke:#000D19;stroke-width:0.5;" width="209" x="7" y="206.58"/><ellipse cx="22" cy="226.4745" fill="#ADD1B2" rx="11" ry="11" style="stroke:#181818;stroke-width:1.0;"/><path d="M24.9688,232.1152 Q24.3906,232.412 23.75,232.5527 Q23.1094,232.7089 22.4063,232.7089 Q19.9063,232.7089 18.5781,231.0683 Q17.2656,229.412 17.2656,226.287 Q17.2656,223.162 18.5781,221.5058 Q19.9063,219.8495 22.4063,219.8495 Q23.1094,219.8495 23.75,220.0058 Q24.4063,220.162 24.9688,220.4589 L24.9688,223.1777 Q24.3438,222.5995 23.75,222.3339 Q23.1563,222.0527 22.5313,222.0527 Q21.1875,222.0527 20.5,223.1308 Q19.8125,224.1933 19.8125,226.287 Q19.8125,228.3808 20.5,229.4589 Q21.1875,230.5214 22.5313,230.5214 Q23.1563,230.5214 23.75,230.2558 Q24.3438,229.9745 24.9688,229.3964 L24.9688,232.1152 Z " fill="#000000"/><text fill="#D9B8FF" font-family="Helvetica" font-size="17" lengthAdjust="spacing" textLength="167" x="41" y="232.3598">aws_kinesis_stream</text></g><!--class aws_kms_key--><g id="elem_aws_kms_key"><rect codeLine="26" fill="#3D176E" height="39.7891" id="aws_kms_key" rx="2.5" ry="2.5" style="stroke:#000D19;stroke-width:0.5;" width="158" x="111.5" y="306.37"/><ellipse cx="126.5" cy="326.2645" fill="#ADD1B2" rx="11" ry="11" style="stroke:#181818;stroke-width:1.0;"/><path d="M129.4688,331.9052 Q128.8906,332.202 128.25,332.3427 Q127.6094,332.4989 126.9063,332.4989 Q124.4063,332.4989 123.0781,330.8583 Q121.7656,329.202 121.7656,326.077 Q121.7656,322.952 123.0781,321.2958 Q124.4063,319.6395 126.9063,319.6395 Q127.6094,319.6395 128.25,319.7958 Q128.9063,319.952 129.4688,320.2489 L129.4688,322.9677 Q128.8438,322.3895 128.25,322.1239 Q127.6563,321.8427 127.0313,321.8427 Q125.6875,321.8427 125,322.9208 Q124.3125,323.9833 124.3125,326.077 Q124.3125,328.1708 125,329.2489 Q125.6875,330.3114 127.0313,330.3114 Q127.6563,330.3114 128.25,330.0458 Q128.8438,329.7645 129.4688,329.1864 L129.4688,331.9052 Z " fill="#000000"/><text fill="#D9B8FF" font-family="Helvetica" font-size="17" lengthAdjust="spacing" textLength="116" x="145.5" y="332.1498">aws_kms_key</text></g><!--class aws_ssm_resource_compliance--><g id="elem_aws_ssm_resource_compliance"><rect codeLine="28" fill="#3D176E" height="39.7891" id="aws_ssm_resource_compliance" rx="2.5" ry="2.5" style="stroke:#000D19;stroke-width:0.5;" width="300" x="40.5" y="7"/><ellipse cx="55.5" cy="26.8945" fill="#ADD1B2" rx="11" ry="11" style="stroke:#181818;stroke-width:1.0;"/><path d="M58.4688,32.5352 Q57.8906,32.832 57.25,32.9727 Q56.6094,33.1289 55.9063,33.1289 Q53.4063,33.1289 52.0781,31.4883 Q50.7656,29.832 50.7656,26.707 Q50.7656,23.582 52.0781,21.9258 Q53.4063,20.2695 55.9063,20.2695 Q56.6094,20.2695 57.25,20.4258 Q57.9063,20.582 58.4688,20.8789 L58.4688,23.5977 Q57.8438,23.0195 57.25,22.7539 Q56.6563,22.4727 56.0313,22.4727 Q54.6875,22.4727 54,23.5508 Q53.3125,24.6133 53.3125,26.707 Q53.3125,28.8008 54,29.8789 Q54.6875,30.9414 56.0313,30.9414 Q56.6563,30.9414 57.25,30.6758 Q57.8438,30.3945 58.4688,29.8164 L58.4688,32.5352 Z " fill="#000000"/><text fill="#D9B8FF" font-family="Helvetica" font-size="17" lengthAdjust="spacing" textLength="258" x="74.5" y="32.7798">aws_ssm_resource_compliance</text></g><!--link aws_dynamodb_table to aws_kinesis_stream--><g id="link_aws_dynamodb_table_aws_kinesis_stream"><path codeLine="30" d="M174.89,147.01 C161.04,164.15 144.6894,184.3918 130.8494,201.5318 " fill="none" id="aws_dynamodb_table-to-aws_kinesis_stream" style="stroke:#1A83AF;stroke-width:2.0;"/><polygon fill="#1A83AF" points="127.08,206.2,135.8462,201.7107,130.2212,202.3099,129.622,196.6848,127.08,206.2" style="stroke:#1A83AF;stroke-width:2.0;"/></g><!--link aws_dynamodb_table to aws_kms_key--><g id="link_aws_dynamodb_table_aws_kms_key"><path codeLine="31" d="M204.59,146.96 C214.86,162.26 227.91,184.66 233.5,206.58 C237.87,223.72 237.87,229.23 233.5,246.37 C227.91,268.29 218.204,285.7082 207.934,301.0082 " fill="none" id="aws_dynamodb_table-to-aws_kms_key" style="stroke:#1A83AF;stroke-width:2.0;"/><polygon fill="#1A83AF" points="204.59,305.99,212.9271,300.7467,207.3766,301.8385,206.2848,296.2881,204.59,305.99" style="stroke:#1A83AF;stroke-width:2.0;"/></g><!--link aws_kinesis_stream to aws_kms_key--><g id="link_aws_kinesis_stream_aws_kms_key"><path codeLine="32" d="M127.11,246.8 C140.96,263.94 157.3106,284.1818 171.1506,301.3218 " fill="none" id="aws_kinesis_stream-to-aws_kms_key" style="stroke:#1A83AF;stroke-width:2.0;"/><polygon fill="#1A83AF" points="174.92,305.99,172.378,296.4748,171.7788,302.0999,166.1538,301.5007,174.92,305.99" style="stroke:#1A83AF;stroke-width:2.0;"/></g><!--link aws_ssm_resource_compliance to aws_dynamodb_table--><g id="link_aws_ssm_resource_compliance_aws_dynamodb_table"><path codeLine="33" d="M190.5,47.22 C190.5,64.36 190.5,83.28 190.5,100.41 " fill="none" id="aws_ssm_resource_compliance-to-aws_dynamodb_table" style="stroke:#1A83AF;stroke-width:2.0;"/><polygon fill="#1A83AF" points="190.5,106.41,194.5,97.41,190.5,101.41,186.5,97.41,190.5,106.41" style="stroke:#1A83AF;stroke-width:2.0;"/></g><!--SRC=[ZP1FJm8n4CNlV8ecd4bOYG8NavM4w8KOyMRCPdOxXOPjkvafajNutLrSDMN_W8TUvltwtflPQea2JU5BOT2aI3pWdRO541WH4xd3mkMEn50fK9DfKrmwwoy2Ap0exZ5_GwypQ1BFMvtjB3ABgq2wWsot8RUtihRt19Oh2QqFg4KEpB7tfDEznw2CdASpfPfaqtGuaT7q1bkO8udqWup7OndDcyZ5gBDx_n5h_OuY2e-sSXvRDLiHtzJPbaSYADbQz5VlxVW8Kcgx4TV1xAdkH1RfPBxUWdI78wqWvp26FH8wNnQuQ6s5yvbKqqxueG_EZfSJSE14bXQCasdY8SrHV0m-0x6oHDQSi2UiZ1kYgHwMZIcpIGZPxId397Eco3NOh3Rko1kz3ADuDecNhwFRZiZ_VQcB33eQdsNxghO-dHRu0W00]--></g></svg>

<svg xmlns="http://www.w3.org/2000/svg" width="347" height="352" viewBox="0 0 347 352"><rect width="223" height="39.789" x="79" y="106.79" fill="#3D176E" rx="2.5" ry="2.5" style="stroke:#000d19;stroke-width:.5"/><circle cx="94" cy="126.684" r="11" fill="#ADD1B2" style="stroke:#181818;stroke-width:1"/><path d="M96.969 132.325q-.578.297-1.219.438-.64.156-1.344.156-2.5 0-3.828-1.64-1.312-1.657-1.312-4.782t1.312-4.781q1.328-1.656 3.828-1.656.703 0 1.344.156.656.156 1.219.453v2.719q-.625-.579-1.219-.844-.594-.281-1.219-.281-1.344 0-2.031 1.078-.687 1.062-.687 3.156t.687 3.172q.688 1.062 2.031 1.062.625 0 1.219-.265.594-.281 1.219-.86z"/><text x="113" y="132.57" fill="#D9B8FF" font-family="Helvetica" font-size="17" textLength="181">aws_dynamodb_table</text><rect width="209" height="39.789" x="7" y="206.58" fill="#3D176E" rx="2.5" ry="2.5" style="stroke:#000d19;stroke-width:.5"/><circle cx="22" cy="226.475" r="11" fill="#ADD1B2" style="stroke:#181818;stroke-width:1"/><path d="M24.969 232.115q-.578.297-1.219.438-.64.156-1.344.156-2.5 0-3.828-1.64-1.312-1.657-1.312-4.782t1.312-4.781q1.328-1.656 3.828-1.656.703 0 1.344.156.656.156 1.219.453v2.719q-.625-.578-1.219-.844-.594-.281-1.219-.281-1.343 0-2.031 1.078-.687 1.062-.687 3.156t.687 3.172q.688 1.062 2.031 1.062.625 0 1.219-.265.594-.281 1.219-.86z"/><text x="41" y="232.36" fill="#D9B8FF" font-family="Helvetica" font-size="17" textLength="167">aws_kinesis_stream</text><rect width="158" height="39.789" x="111.5" y="306.37" fill="#3D176E" rx="2.5" ry="2.5" style="stroke:#000d19;stroke-width:.5"/><circle cx="126.5" cy="326.264" r="11" fill="#ADD1B2" style="stroke:#181818;stroke-width:1"/><path d="M129.469 331.905q-.578.297-1.219.438-.64.156-1.344.156-2.5 0-3.828-1.64-1.312-1.657-1.312-4.782t1.312-4.781q1.328-1.656 3.828-1.656.703 0 1.344.156.656.156 1.219.453v2.719q-.625-.579-1.219-.844-.594-.281-1.219-.281-1.344 0-2.031 1.078-.687 1.062-.687 3.156t.687 3.172q.688 1.062 2.031 1.062.625 0 1.219-.265.594-.281 1.219-.86z"/><text x="145.5" y="332.15" fill="#D9B8FF" font-family="Helvetica" font-size="17" textLength="116">aws_kms_key</text><rect width="300" height="39.789" x="40.5" y="7" fill="#3D176E" rx="2.5" ry="2.5" style="stroke:#000d19;stroke-width:.5"/><circle cx="55.5" cy="26.895" r="11" fill="#ADD1B2" style="stroke:#181818;stroke-width:1"/><path d="M58.469 32.535q-.578.297-1.219.438-.64.156-1.344.156-2.5 0-3.828-1.64-1.312-1.657-1.312-4.782t1.312-4.781q1.328-1.656 3.828-1.656.703 0 1.344.156.656.156 1.219.453v2.719q-.625-.578-1.219-.844-.594-.281-1.219-.281-1.343 0-2.031 1.078-.687 1.062-.687 3.156T54 29.879q.688 1.062 2.031 1.062.625 0 1.219-.265.594-.281 1.219-.86z"/><text x="74.5" y="32.78" fill="#D9B8FF" font-family="Helvetica" font-size="17" textLength="258">aws_ssm_resource_compliance</text><path fill="none" d="M174.89 147.01c-13.85 17.14-30.2 37.382-44.04 54.522" style="stroke:#1a83af;stroke-width:2"/><path fill="#1A83AF" d="m127.08 206.2 8.766-4.49-5.625.6-.599-5.625z" style="stroke:#1a83af;stroke-width:2"/><path fill="none" d="M204.59 146.96c10.27 15.3 23.32 37.7 28.91 59.62 4.37 17.14 4.37 22.65 0 39.79-5.59 21.92-15.296 39.338-25.566 54.638" style="stroke:#1a83af;stroke-width:2"/><path fill="#1A83AF" d="m204.59 305.99 8.337-5.243-5.55 1.091-1.092-5.55z" style="stroke:#1a83af;stroke-width:2"/><path fill="none" d="M127.11 246.8c13.85 17.14 30.2 37.382 44.04 54.522" style="stroke:#1a83af;stroke-width:2"/><path fill="#1A83AF" d="m174.92 305.99-2.542-9.515-.6 5.625-5.624-.6z" style="stroke:#1a83af;stroke-width:2"/><path fill="none" d="M190.5 47.22v53.19" style="stroke:#1a83af;stroke-width:2"/><path fill="#1A83AF" d="m190.5 106.41 4-9-4 4-4-4z" style="stroke:#1a83af;stroke-width:2"/></svg>
